svg/material-icons/view_compact_alt/materialicons/24px.svg

<svg xmlns="http://www.w3.org/2000/svg" width="24" height="24" viewBox="0 0 24 24"><path d="M20 4H4c-1.1 0-2 .9-2 2v12c0 1.1.9 2 2 2h16c1.1 0 2-.9 2-2V6c0-1.1-.9-2-2-2zm-8.5 12.5h-4v-4h4v4zm0-5h-4v-4h4v4zm5 5h-4v-4h4v4zm0-5h-4v-4h4v4z"/></svg>

<svg xmlns="http://www.w3.org/2000/svg" enable-background="new 0 0 24 24" height="24" viewBox="0 0 24 24" width="24"><g><rect fill="none" height="24" width="24"/></g><g><g><path d="M20,4H4C2.9,4,2,4.9,2,6v12c0,1.1,0.9,2,2,2h16c1.1,0,2-0.9,2-2V6C22,4.9,21.1,4,20,4z M11.5,16.5h-4v-4h4V16.5z M11.5,11.5h-4v-4h4V11.5z M16.5,16.5h-4v-4h4V16.5z M16.5,11.5h-4v-4h4V11.5z"/></g></g></svg>
